assets/emojis/FacewithTearsofJoy.svg

<svg width="126" height="126" viewBox="0 0 126 126" fill="none" xmlns="http://www.w3.org/2000/svg">
<circle cx="63.1152" cy="62.77" r="62.3496" fill="#F9B42F"/>
<path opacity="0.3" fill-rule="evenodd" clip-rule="evenodd" d="M114.051 98.9414C102.729 110.533 86.9271 117.728 69.4443 117.728C35.0095 117.728 7.09466 89.8133 7.09466 55.3786C7.09466 41.9829 11.3191 29.5739 18.5085 19.4111C7.53076 30.6503 0.765625 46.022 0.765625 62.9739C0.765625 97.4086 28.6805 125.324 63.1152 125.324C84.1543 125.324 102.759 114.903 114.051 98.9414Z" fill="#BC8417"/>
<path d="M79.7605 75.1138H46.6125C43.9405 75.1138 42.97 78.2661 44.8606 80.1777C49.0072 84.3301 54.6159 89.0396 63.1739 89.0396C71.7319 89.0396 77.3406 84.2921 81.4872 80.1777C83.403 78.2661 82.4325 75.1138 79.7605 75.1138Z" fill="#2C2A46"/>
<path d="M44.9057 61.1878C44.1892 61.1878 43.502 60.9073 42.9953 60.4081C42.4886 59.9088 42.204 59.2317 42.204 58.5257C42.204 57.6219 41.8396 56.7552 41.191 56.1162C40.5425 55.4772 39.6629 55.1182 38.7457 55.1182C37.8285 55.1182 36.9488 55.4772 36.3003 56.1162C35.6517 56.7552 35.2874 57.6219 35.2874 58.5257C35.2874 59.2317 35.0027 59.9088 34.496 60.4081C33.9893 60.9073 33.3021 61.1878 32.5856 61.1878C31.869 61.1878 31.1818 60.9073 30.6751 60.4081C30.1684 59.9088 29.8838 59.2317 29.8838 58.5257C29.8838 56.2099 30.8174 53.9889 32.4794 52.3514C34.1413 50.7139 36.3953 49.7939 38.7457 49.7939C41.096 49.7939 43.35 50.7139 45.012 52.3514C46.6739 53.9889 47.6075 56.2099 47.6075 58.5257C47.6075 59.2317 47.3229 59.9088 46.8162 60.4081C46.3095 60.9073 45.6223 61.1878 44.9057 61.1878Z" fill="#2C2A46"/>
<path d="M11.0567 64.0183C8.01214 65.6126 5.67226 68.2859 4.49521 71.5148C3.87983 73.1071 3.76532 74.8494 4.16692 76.5085C4.56852 78.1677 5.46719 79.6647 6.74262 80.7994C8.00497 81.656 9.48122 82.1436 11.0055 82.2074C12.5297 82.2711 14.0415 81.9085 15.3709 81.1602C19.7671 78.8965 22.6871 73.4997 24.4587 69.0707C25.732 65.7276 27.9701 62.8385 30.8889 60.7703C31.0424 60.6726 31.1582 60.5257 31.2173 60.3536C31.2765 60.1816 31.2755 59.9945 31.2145 59.8231C31.1536 59.6517 31.0362 59.506 30.8817 59.4099C30.7272 59.3138 30.5447 59.2729 30.364 59.294C24.2126 59.8845 16.5684 60.8524 11.0567 64.0183Z" fill="#55CFFF"/>
<path d="M80.6939 61.1878C81.4104 61.1878 82.0976 60.9073 82.6043 60.4081C83.111 59.9088 83.3957 59.2317 83.3957 58.5257C83.3957 57.6219 83.76 56.7552 84.4086 56.1162C85.0571 55.4772 85.9368 55.1182 86.854 55.1182C87.7711 55.1182 88.6508 55.4772 89.2993 56.1162C89.9479 56.7552 90.3122 57.6219 90.3122 58.5257C90.3122 59.2317 90.5969 59.9088 91.1036 60.4081C91.6103 60.9073 92.2975 61.1878 93.014 61.1878C93.7306 61.1878 94.4178 60.9073 94.9245 60.4081C95.4312 59.9088 95.7158 59.2317 95.7158 58.5257C95.7158 56.2099 94.7822 53.9889 93.1202 52.3514C91.4583 50.7139 89.2043 49.7939 86.854 49.7939C84.5036 49.7939 82.2496 50.7139 80.5877 52.3514C78.9257 53.9889 77.9921 56.2099 77.9921 58.5257C77.9921 59.2317 78.2767 59.9088 78.7834 60.4081C79.2901 60.9073 79.9773 61.1878 80.6939 61.1878Z" fill="#2C2A46"/>
<path d="M114.543 64.0183C117.587 65.6126 119.927 68.2859 121.104 71.5148C121.72 73.1071 121.834 74.8494 121.433 76.5085C121.031 78.1677 120.132 79.6647 118.857 80.7994C117.595 81.656 116.118 82.1436 114.594 82.2074C113.07 82.2711 111.558 81.9085 110.229 81.1602C105.832 78.8965 102.913 73.4997 101.141 69.0707C99.8677 65.7276 97.6295 62.8385 94.7107 60.7703C94.5572 60.6726 94.4414 60.5257 94.3823 60.3536C94.3231 60.1816 94.3241 59.9945 94.3851 59.8231C94.446 59.6517 94.5634 59.506 94.7179 59.4099C94.8724 59.3138 95.0549 59.2729 95.2356 59.294C101.387 59.8845 109.031 60.8524 114.543 64.0183Z" fill="#55CFFF"/>
</svg>

<svg xmlns="http://www.w3.org/2000/svg" width="126" height="126" fill="none" viewBox="0 0 126 126"><circle cx="63.115" cy="62.77" r="62.35" fill="#f9b42f"/><path fill="#bc8417" fill-rule="evenodd" d="M114.051 98.941c-11.322 11.592-27.124 18.787-44.607 18.787-34.434 0-62.35-27.915-62.35-62.35 0-13.395 4.225-25.804 11.415-35.967C7.53 30.651.766 46.022.766 62.974c0 34.435 27.914 62.35 62.35 62.35 21.038 0 39.643-10.421 50.935-26.383" clip-rule="evenodd" opacity=".3"/><path fill="#2c2a46" d="M79.76 75.114H46.612c-2.672 0-3.642 3.152-1.751 5.064 4.146 4.152 9.755 8.862 18.313 8.862s14.167-4.748 18.313-8.862c1.916-1.912.946-5.064-1.727-5.064M44.906 61.188c-.717 0-1.404-.28-1.91-.78a2.64 2.64 0 0 1-.792-1.882c0-.904-.364-1.77-1.013-2.41a3.48 3.48 0 0 0-2.445-.998 3.5 3.5 0 0 0-2.446.998 3.38 3.38 0 0 0-1.013 2.41 2.64 2.64 0 0 1-.791 1.882 2.72 2.72 0 0 1-1.91.78c-.717 0-1.404-.28-1.91-.78a2.64 2.64 0 0 1-.792-1.882c0-2.316.933-4.537 2.595-6.175a8.93 8.93 0 0 1 6.267-2.557c2.35 0 4.604.92 6.266 2.557a8.67 8.67 0 0 1 2.596 6.175 2.64 2.64 0 0 1-.792 1.882 2.72 2.72 0 0 1-1.91.78"/><path fill="#55cfff" d="M11.057 64.018a13.8 13.8 0 0 0-6.562 7.497 8.38 8.38 0 0 0 2.248 9.284 8.2 8.2 0 0 0 8.628.361c4.396-2.263 7.316-7.66 9.088-12.09a18.04 18.04 0 0 1 6.43-8.3.803.803 0 0 0-.525-1.476c-6.151.59-13.796 1.558-19.307 4.724"/><path fill="#2c2a46" d="M80.694 61.188c.716 0 1.404-.28 1.91-.78.507-.5.792-1.176.792-1.882 0-.904.364-1.77 1.013-2.41a3.5 3.5 0 0 1 2.445-.998c.917 0 1.797.36 2.445.998a3.38 3.38 0 0 1 1.013 2.41c0 .706.285 1.383.792 1.882.506.5 1.194.78 1.91.78.717 0 1.404-.28 1.91-.78.507-.5.792-1.176.792-1.882a8.67 8.67 0 0 0-2.596-6.175 8.93 8.93 0 0 0-6.266-2.557 8.93 8.93 0 0 0-6.266 2.557 8.67 8.67 0 0 0-2.596 6.175c0 .706.285 1.383.791 1.882.507.5 1.194.78 1.91.78"/><path fill="#55cfff" d="M114.543 64.018a13.8 13.8 0 0 1 6.561 7.497 8.38 8.38 0 0 1-2.247 9.284 8.2 8.2 0 0 1-8.628.361c-4.397-2.263-7.316-7.66-9.088-12.09a18.04 18.04 0 0 0-6.43-8.3.803.803 0 0 1 .525-1.476c6.151.59 13.795 1.558 19.307 4.724"/></svg>
